X:357
M:C|
L:1/8
K:A
E|A/A/A Ac ecec|A/A/A Ac dB=BG|A/A/A Ac ecec|efdB c2A:|
g|aAaA gAgA|fgaf ecBA|aAaA gAgA|fgag f2eg|acFa gBEg|fADf ecdB|

